build/img/contacts/yt.svg

<svg width="28" height="21" viewBox="0 0 28 21" fill="none" xmlns="http://www.w3.org/2000/svg">
<path d="M27.1115 3.94162C26.7925 2.7735 25.8575 1.85269 24.6717 1.53815C22.5055 0.954346 13.8406 0.954346 13.8406 0.954346C13.8406 0.954346 5.17599 0.954346 3.00979 1.51602C1.84687 1.83022 0.88905 2.77367 0.57006 3.94162C0 6.07514 0 10.4998 0 10.4998C0 10.4998 0 14.9468 0.57006 17.058C0.889388 18.2259 1.82406 19.1467 3.00996 19.4613C5.1988 20.0453 13.8409 20.0453 13.8409 20.0453C13.8409 20.0453 22.5055 20.0453 24.6717 19.4836C25.8576 19.1692 26.7925 18.2484 27.1118 17.0805C27.6817 14.9468 27.6817 10.5223 27.6817 10.5223C27.6817 10.5223 27.7045 6.07514 27.1115 3.94162ZM11.0819 14.5875V6.41215L18.2872 10.4998L11.0819 14.5875Z" fill="#555665"/>
</svg>

<svg width="28" height="21" fill="none" xmlns="http://www.w3.org/2000/svg"><path d="M27.111 3.942a3.442 3.442 0 0 0-2.44-2.404C22.507.954 13.842.954 13.842.954s-8.665 0-10.831.562A3.512 3.512 0 0 0 .57 3.942C0 6.075 0 10.5 0 10.5s0 4.447.57 6.558a3.443 3.443 0 0 0 2.44 2.403c2.189.584 10.83.584 10.83.584s8.666 0 10.832-.561a3.443 3.443 0 0 0 2.44-2.404c.57-2.133.57-6.558.57-6.558s.023-4.447-.57-6.58zm-16.03 10.646V6.412l7.206 4.088-7.205 4.088z" fill="#555665"/></svg>
